X:1
T:The Lord Will Come Some Day
T:Garland L. Shirley, 1921
T:The Lord Will Come Some Day
T:Public Domain
T:Public Domain
T:Public Domain
T:Public Domain
C:Garland L. Shirley, 1921
Z:Public Domain
%%score 1 ( 2 3 )
L:1/8
M:4/4
K:C
V:1 treble 
V:2 bass 
V:3 bass 
V:1
 [CE]>[DF] | [EG]>[^D^F] [EG]>[=FA] [EG]2 [Ec]>[F=d] | [Ge]>[^F^d] [Ge]>[=F=d] [Ec]2 [CE]>[DF] | %3
w: 1.~We are|on the road of joy, with a|mes- sage of good cheer, Till the|
w: 2.~We are|on the road of joy, and we’ll|meet the Lord some- where, Caught with|
w: 3.~Tell the|news to ev- ery one that the|Sav- ior comes a- gain, What a|
 [EG]2 [Ec]2 [Ed]2 [Ec]2 | [FB]6 [Gd]>[Ge] | [Gf]>[Ge] [Gf]>[Ge] [Gd]2 [Gd]>[Gf] | %6
w: Church for Christ has|won; And we|tra- vel with the King, and His|
w: Him up in the|air; For a|sea- son there re- main and re-|
w: joy- ful theme to|sing; Ring it|from the mount- ain top, and pro-|
 [Ge]>[^F^d] [Ge]>[=F=d] [Ec]2 [Ec]>[Ge] | [^Fd]2 [FA]2 [FB]2 [Fc]2 | [Fd]6 [CE]>[DF] | %9
w: prais- es we will sing, As the|march goes on and|on; Ev- ery|
w: turn to earth a- gain, And with|Christ His joys we’ll|share; Ev- ery|
w: claim it in the shop, To the|world this mes- sage|bring; Ev- ery|
 [EG]>[^D^F] [EG]>[=FA] [EG]2 [Ec]>[F=d] | [Ge]>[^F^d] [Ge]>[=F=d] [Ec]2 [EG]>[E^G] | %11
w: heart is ring- ing true, and by|faith we’re watch- ing, too, For the|
w: heart is ring- ing true, and with|love is yearn- ing, too, For the|
w: heart must ring it true, and in|faith must live it, too, Hast- en|
 [FA]2 [Fc]2 [Fd]2 [Fc]2 | [EG]6 [CE]>[DF] | [EG]>[^D^F] [EG]>[=FA] [Ec]2 [Ec]>[Ec] | %14
w: per- fect day to|come; Oh, we|know the time is near, when the|
w: per- fect day to|dawn; Oh, the|glo- ry that will be, when His|
w: now the per- fect|day; For His|com- ing will be soon, He’ll dis-|
 [Fd]>[E^c] [Fd]>[Ae] [Af]2 [Af]2 | [Ge]>[Fd] [Ec]>[EA] [^Fc]2 [=Fd]2 | [Ec]6 || %17
w: sign shall thus ap- pear, For|Christ to lead His loved ones|home.|
w: face we all shall see, When|Christ on earth shall meet His|own.|
w: pel all doubt and gloom, And|we shall reign with Him for|aye.|
"^Refrain" [CE]>[DF] | [EG]4 [Ec]3 [FA] | [EG]>[EA] [EG]>[EA] [EG]2 [CE]>[DF] | %20
w: March- ing|on, on, to|tell the glad good news, That the|
w: |||
w: |||
 [EG]2 [Ec]2 [Ed]2 [Ec]2 | [FB]6 [Gd]>[Ge] | [Gf]4 [Gd]3 [FB] | %23
w: Lord will come some|day; March- ing|on, on, to|
w: |||
w: |||
 [FA]>[FB] [FA]>[FB] [FA]2 [FB]>[Fc] | [Fd]2 [F^c]2 [Fd]2 [^F^d]2 | [Ge]6 [CE]>[DF] | %26
w: save the world from sin, And pro-|claim the joy- ful|way; March- ing|
w: |||
w: |||
 [EG]4 [Ec]3 [EA] | [EG]>[EA] [EG]>[EA] [EG]2 [CE]>[DF] | [EG]2 [Ec]2 [Ed]2 [Ec]2 | %29
w: on, on, the|prom- is- es are sure, He is|com- ing by and|
w: |||
w: |||
 [FA]4- [FA]>[F^G] [FA]>[FB] | [Fc]>[FB] [Fc]>[Fd] [Ge]2 [Ec]>[Ec] | %31
w: by; * We’ll watch and|work for Him each day, Till the|
w: ||
w: ||
 [Fd]>[E^c] [Fd]>[Ae] [Af]2 [Af]2 | [Ge]>[Fd] [Ec]>[EA] [^Fc]2 [=Fd]2 | [Ec]6 |] %34
w: clouds shall roll a- way, And|we shall see Him in the|sky.|
w: |||
w: |||
V:2
 [C,G,]>[C,G,] | [C,C]>[C,C] [C,C]>[C,C] [C,C]2 [C,G,]>[C,G,] | %2
w: ~ ~|~ ~ ~ ~ ~ ~ ~|
 [C,C]>[C,C] [C,C]>[C,C] [C,G,]2 [C,G,]>[C,G,] | [C,G,]2 [C,G,]2 [C,G,]2 [C,G,]2 | %4
w: ~ ~ ~ ~ ~ ~ ~|~ ~ ~ ~|
 [D,G,]6 [G,B,]>[G,C] | [G,D]>[G,C] [G,D]>[G,C] [G,B,]2 [G,B,]>[G,C] | %6
w: ~ ~ ~|~ ~ ~ ~ ~ ~ ~|
 [C,B,]>[C,C] [C,C]>[C,C] [C,G,]2 [C,G,]>[C,C] | [D,A,]2 [D,C]2 [D,B,]2 [D,A,]2 | %8
w: ~ ~ ~ ~ ~ ~ ~|~ ~ ~ ~|
 (G,>A, B,>A, G,>F,) [E,G,]>[D,B,] | [C,C]>[C,C] [C,C]>[C,C] [C,C]2 [C,G,]>[C,G,] | %10
w: ~ * * * * * ~ ~|~ ~ ~ ~ ~ ~ ~|
 [C,C]>[C,C] [C,C]>[C,C] [C,G,]2 [C,C]>[C,C] | [F,C]2 [F,A,]2 [F,A,]2 [F,A,]2 | C6 [C,G,]>[C,G,] | %13
w: ~ ~ ~ ~ ~ ~ ~|~ ~ ~ ~|~ ~ ~|
 [C,C]>[C,C] [C,C]>[C,C] [C,G,]2 [C,G,]>[C,G,] | [F,A,]>[G,A,] [F,A,]>[E,^C] [D,D]2 [D,D]2 | %15
w: ~ ~ ~ ~ ~ ~ ~|~ ~ ~ ~ ~ ~|
 [G,C]>[G,C] [G,C]>[G,C] [A,C]2 [G,,G,B,]2 | [C,G,C]6 || z2 | [C,C]2 [C,G,]2 [C,C]2 [C,G,]2 | %19
w: ~ ~ ~ ~ ~ on,|on,||on, to tell the|
 [C,C]2 [C,G,]2 [C,C]2 [C,G,]>[C,G,] | [C,C]2 [C,G,]2 [C,C]2 [C,G,]2 | [D,G,]6 [G,B,]>[G,C] | %22
w: news, ~ ~ ~ ~|~ ~ ~ ~|~ on, on,|
 [G,B,]2 [G,D]2 [G,B,]2 [G,D]2 | [G,B,]2 [G,D]2 (B,>C) [G,D]>[G,C] | %24
w: on, to save the|world ~ ~ * ~ ~|
 [G,A,]2 [G,^A,]2 [G,B,]2 [G,B,]2 | C,>C B,>A, (G,>F,) [E,G,]>[D,G,] | %26
w: ~ ~ the joy-|ful way, ~ ~ on, * on, on,|
 [C,C]2 [C,G,]2 [C,C]2 [C,G,]2 | [C,C]2 [C,G,]2 [C,C]2 [C,G,]>[C,G,] | %28
w: prom- ise sure *||
 [C,C]2 [C,G,]2 [C,C]2 [C,C]2 | [F,C]4- [F,C]>[F,B,] [F,C]>[F,B,] | %30
w: ||
 [F,A,]>[F,G,] [F,A,]>[F,A,] [C,C]2 [C,G,]>[C,G,] | [F,A,]>[G,A,] [F,A,]>[E,^C] [D,D]2 [D,D]2 | %32
w: ||
 [G,C]>[G,C] [G,C]>[G,C] [A,C]2 [G,,G,B,]2 | [C,G,C]6 |] %34
w: ||
V:3
 x2 | x8 | x8 | x8 | x8 | x8 | x8 | x8 | B,6 x2 | x8 | x8 | x8 | C6 x2 | x8 | x8 | x8 | x6 || x2 | %18
w: ||||||||~||||~||||||
 x8 | x8 | x8 | x8 | x8 | x4 G,2 x2 | x8 | C6 x2 | x8 | x8 | x8 | x8 | x8 | x8 | x8 | x6 |] %34
w: |||||~||the|||||||||

